X:059
T:Waltz TS.059
M:3/8
L:1/16
Q:3/8=50
S:Thomas Sands’ MS,1810,Lincolnshire
R:waltz
O:England;Lincolnshire
Z:vmp.Ruairidh Greig, 2011
K:G
d2d2g2|efgfge|d4B2|cBcdec|BABcdB|ABcAGF|G4:|
|:GA|B2B2B2|BABGAB|cdedcB|(BA) (GD) (GA)|B2B2B2|BABGAB|cd ec AF|G4:|]

